X:1
T:Title
%%score { 1 | 2 }
L:1/8
M:4/4
K:D
V:1 treble nm="Grand Piano"
V:2 bass 
V:1
 z4 z2[Q:1/4=100] D2 | F3 [EG] [FA]2 [EG]F | G>A B>c [Fd]4 | c2 c>d e4 | %4
[M:9/8] [DFd]2 [DGc]- [DGc]/[DGB]/ [DFA]2- [DFA] [F,D]2 |[M:4/4] [A,DF]3 [A,EG] [A,FA]2 [A,EG]F | %6
 G>A B>c [Fd]4 | c2 c>d e2 d>c | [Fd]6 AA | A2 A2 A2 AB | c2 c2 c2 AB | c2 c2 c2 cd | %12
[M:7/8] e2 d2 c3 |[M:1/4] A2 |[M:4/4] [FA]3 [DF] [FA]2 [Fd]2 |[M:9/8] d3 B d2- d B2 | %16
[M:4/4] A2 [CE][DF] [EG][GB] [FA]>[EG] | [DF]6 [FA]2 | [FA]3 [DF] [FA]2 [Fd]2 | %19
[M:9/8] d3 B d2- d B2 |[M:4/4] A2 EF [EG]E D>C |[M:3/4] D6 |] %22
V:2
 z4 z2 [D,F,]2 | [D,A,D]3 [D,A,] [D,A,]2 [D,A,][D,A,D] | %2
 [G,B,D]>[G,DF] [G,DG]>[G,DG][K:bass] [D,D]4 | [A,E]2[K:treble] [A,E]>[A,F] [A,CG]4 | %4
[M:9/8][K:bass] D,2 G,- G,/G,/ D,2- D, D,2 |[M:4/4] D,3 D, D,2 D,[D,A,D] | %6
 [G,B,D]>[G,B,F] [G,B,G]>[G,G][K:bass] [D,A,]4 | [A,E]2[K:treble] [A,E]>[A,F] [A,G]2 [A,F]>[A,F] | %8
 [D,A,]6 [A,CE][A,CE] | [A,CE]2 [A,CE]2 [A,CE]2 [A,CE][A,DE] | [A,E]2 [A,CE]2 [A,E]2 [A,C][A,D] | %11
 [A,E]2 [A,E]2 [A,E]2 [A,E][A,B,E] |[M:7/8] [E,CE]2 [E,B,E]2[K:treble] [A,E]3 |[M:1/4] [A,G]2 | %14
[M:4/4][K:bass] [D,D]3 [D,A,] [D,D]2 [D,A,]2 | %15
[M:9/8][K:treble] [G,B,G]3 [G,DG] [G,B,G]2- [G,B,G] [G,DG]2 | %16
[M:4/4][K:bass] [A,CE]2 [A,,A,][A,,A,] [A,,A,][A,,A,] [A,,A,]>[A,,A,] | [D,A,]6 [D,A,]2 | %18
 [D,D]3 [D,A,] [D,D]2 [D,A,]2 |[M:9/8][K:treble] [G,B,G]3 [G,DG] [G,B,G]2- [G,B,G] [G,DG]2 | %20
[M:4/4][K:bass] [A,CE]2 [A,C][A,D] [A,,G,][A,,G,A,] [A,,F,A,]>[A,,E,A,] |[M:3/4] [D,F,A,]6 |] %22

